X: 06018
T: DOOZER'S WALTZ
C: Bob McQuillen July 1982
B: Bob's Note Book 6 #18
%R: waltz
Z: 2021 John Chambers <jc:trillian.mit.edu>
M: 3/4
L: 1/8
K: G	% and Em
B,C \
| D2 B,G, B,D | E2 D2 GA | B2 G3 E | D4 A,B, | C2 A2 AG | FE D2 GA | B2 d2 c2 | B4 B,C |
| D2 B,G, B,D | E2 D2 B,C | D2 G2 F2 | E3 D EF | GF EF GA | G2 D2 Bd | c2 B2 A2 | G4 |]
[| B,D \
| E2 EF GA | G2 E2 GE | B,2 E3 D | E3 F GA | B2 BA Bc | BA G2 GA | B2 e3 d | e3 f ge |
| de dB GA | B2 AB GF | E2 E2 GE | D2 B,2 B,D | ED EF GA | B2 AG BA | G2 E2 ED | E4 |]
%%begintext align
%% For David B. Wenigmann -
%% In memoriam, and with love.
%%endtext

%%sep 1 1 500

%%sep 1 1 500

